src/static/cloud3.svg

<svg xmlns="http://www.w3.org/2000/svg" width="475" height="229" viewBox="0 0 475 229">
  <g fill="#072142" fill-rule="evenodd">
    <path d="M306.1761 13.5799C306.1761 20.6199 299.2641 26.3799 290.8161 26.3799L136.7041 26.3799C128.2561 26.3799 121.3441 20.6199 121.3441 13.5799 121.3441 6.5399 128.2561.7799 136.7041.7799L290.8161.7799C299.2641.7799 306.1761 6.5399 306.1761 13.5799M48.1283 62.2195C48.1283 69.2595 41.2163 75.0205 32.7683 75.0205L15.3593 75.0205C6.9123 75.0205.0003 69.2595.0003 62.2195.0003 55.1805 6.9123 49.4195 15.3593 49.4195L32.7683 49.4195C41.2163 49.4195 48.1283 55.1805 48.1283 62.2195M350.7201 13.5799C350.7201 20.6199 344.9601 26.3799 337.9201 26.3799 330.8801 26.3799 325.1201 20.6199 325.1201 13.5799 325.1201 6.5399 330.8801.7799 337.9201.7799 344.9601.7799 350.7201 6.5399 350.7201 13.5799M431.1039 113.4197C431.1039 120.4597 424.1919 126.2197 415.7449 126.2197L398.3359 126.2197C389.8879 126.2197 382.9759 120.4597 382.9759 113.4197 382.9759 106.3797 389.8879 100.6197 398.3359 100.6197L415.7449 100.6197C424.1919 100.6197 431.1039 106.3797 431.1039 113.4197"/>
    <path d="M458.7523,203.0203 L335.8723,203.0203 C327.4243,203.0203 320.5123,197.2593 320.5123,190.2193 C320.5123,183.1803 327.4243,177.4193 335.8723,177.4193 L342.5273,177.4193 C350.9763,177.4193 357.8883,171.6603 357.8883,164.6203 C357.8883,157.5803 350.9763,151.8203 342.5273,151.8203 L259.0713,151.8203 C250.6243,151.8203 243.7123,146.0603 243.7123,139.0203 C243.7123,131.9803 250.6243,126.2193 259.0713,126.2193 L359.4243,126.2193 C367.8723,126.2193 374.7833,120.4593 374.7833,113.4193 C374.7833,106.3793 367.8723,100.6203 359.4243,100.6203 L229.3763,100.6203 C220.9283,100.6203 214.0163,94.8603 214.0163,87.8203 C214.0163,80.7803 220.9283,75.0203 229.3763,75.0203 L336.8963,75.0203 C345.3443,75.0203 352.2563,69.2593 352.2563,62.2193 C352.2563,55.1803 345.3443,49.4193 336.8963,49.4193 L75.7753,49.4193 C67.3283,49.4193 60.4163,55.1803 60.4163,62.2193 C60.4163,69.2593 67.3283,75.0203 75.7753,75.0203 L173.5673,75.0203 C182.0163,75.0203 188.9283,80.7803 188.9283,87.8203 C188.9283,94.8603 182.0163,100.6203 173.5673,100.6203 L136.7043,100.6203 C128.2563,100.6203 121.3443,106.3793 121.3443,113.4193 C121.3443,120.4593 128.2563,126.2193 136.7043,126.2193 L136.1913,126.2193 C144.6403,126.2193 151.5523,131.9803 151.5523,139.0203 C151.5523,146.0603 144.6403,151.8203 136.1913,151.8203 L19.9683,151.8203 C11.5203,151.8203 4.6073,157.5803 4.6073,164.6203 C4.6073,171.6603 11.5203,177.4193 19.9683,177.4193 L221.1843,177.4193 C229.6323,177.4193 236.5443,183.1803 236.5443,190.2193 C236.5443,197.2593 229.6323,203.0203 221.1843,203.0203 L197.6323,203.0203 C189.1843,203.0203 182.2723,208.7803 182.2723,215.8203 C182.2723,222.8603 189.1843,228.6203 197.6323,228.6203 L458.7523,228.6203 C467.1993,228.6203 474.1113,222.8603 474.1113,215.8203 C474.1113,208.7803 467.1993,203.0203 458.7523,203.0203"/>
  </g>
</svg>

<?xml version="1.0" encoding="UTF-8"?><svg viewBox="0 0 475 229" xmlns="http://www.w3.org/2000/svg"><g fill="#072142" fill-rule="evenodd"><path d="m306.18 13.58c0 7.04-6.912 12.8-15.36 12.8h-154.11c-8.448 0-15.36-5.76-15.36-12.8s6.912-12.8 15.36-12.8h154.11c8.448 0 15.36 5.76 15.36 12.8m-258.05 48.64c0 7.04-6.912 12.801-15.36 12.801h-17.409c-8.447 0-15.359-5.761-15.359-12.801 0-7.039 6.912-12.8 15.359-12.8h17.409c8.448 0 15.36 5.761 15.36 12.8m302.59-48.64c0 7.04-5.76 12.8-12.8 12.8s-12.8-5.76-12.8-12.8 5.76-12.8 12.8-12.8 12.8 5.76 12.8 12.8m80.384 99.84c0 7.04-6.912 12.8-15.359 12.8h-17.409c-8.448 0-15.36-5.76-15.36-12.8s6.912-12.8 15.36-12.8h17.409c8.447 0 15.359 5.76 15.359 12.8"/><path d="m458.75 203.02h-122.88c-8.448 0-15.36-5.761-15.36-12.801 0-7.039 6.912-12.8 15.36-12.8h6.655c8.449 0 15.361-5.759 15.361-12.799s-6.912-12.8-15.361-12.8h-83.456c-8.447 0-15.359-5.76-15.359-12.8s6.912-12.801 15.359-12.801h100.35c8.448 0 15.359-5.76 15.359-12.8s-6.911-12.799-15.359-12.799h-130.05c-8.448 0-15.36-5.76-15.36-12.8s6.912-12.8 15.36-12.8h107.52c8.448 0 15.36-5.761 15.36-12.801 0-7.039-6.912-12.8-15.36-12.8h-261.12c-8.447 0-15.359 5.761-15.359 12.8 0 7.04 6.912 12.801 15.359 12.801h97.792c8.449 0 15.361 5.76 15.361 12.8s-6.912 12.8-15.361 12.8h-36.863c-8.448 0-15.36 5.759-15.36 12.799s6.912 12.8 15.36 12.8h-0.513c8.449 0 15.361 5.761 15.361 12.801s-6.912 12.8-15.361 12.8h-116.22c-8.448 0-15.361 5.76-15.361 12.8s6.913 12.799 15.361 12.799h201.22c8.448 0 15.36 5.761 15.36 12.8 0 7.04-6.912 12.801-15.36 12.801h-23.552c-8.448 0-15.36 5.76-15.36 12.8s6.912 12.8 15.36 12.8h261.12c8.447 0 15.359-5.76 15.359-12.8s-6.912-12.8-15.359-12.8"/></g></svg>
